!!!OTL: Wanderlied im Sommer.
!!!OTL-incipit:WOHLAUF IHR LIEBEN LEUTE
!!!ARE: Europa, Mitteleuropa, Deutschland
!!!SCT: F0271
!!!TXL: @@DE
!!!YEM: Copyright 1995, estate of Helmut Schaffrath.
**kern	**text
*ICvox	*
*clefG2	*
*M6/8	*
*k[]	*
*C:	*
!LO:TX:a:t=Munter.	!
!LO:TX:a:t=P:only the highest voice encoded:problem	!
{8g	1._Wohlauf,
=1	=1
4g	.
8cc/	ihr
4cc/	lie-
8ee/	-ben
=2	=2
4.ee/	Leu-
8cc/	-te,
8r}	.
{8ee	den
=3	=3
4dd	Wander-
8cc/	.
4b/	-ſtab
8a	ʒur
=4	=4
4.g	Hand
4r}	.
{8g	es
=5	=5
4b/	geht
8cc/	in's
4dd/	ſchö-
8ee/	-ne
=6	=6
4.ff	Wei-
8dd	-te,
8r}	.
{8ff	es
=7	=7
4ee	geht
8dd	heut'
4cc/	ü-
8b/	-ber
=8	=8
4.cc/	Land!
4r}	.
==	==
!!!AGN: Jugend - Lied, Wander - Lied, Sommer
!!!ONB: ESAC (Essen Associative Code) Database: FINK
!!!AMT: compound duple
!!!AIN: vox
!!!EED: Helmut Schaffrath
!!!EEV: 1.0
!!!GTL: Jugendlieder
!!Text: J. Ch. Wagener
!!!source: Musikalischer Hausschatz der Deutschen. Eine Sammlung von über 1000 Liedern und Gesängen mit Singstimmen und Klavierbegleitung. Leipzig, Litterarisches Verlags-Haus.
!!!page: 162
!!!URL-scan: https://www.digitale-sammlungen.de/en/view/bsb11144622?page=160,161
!!!ENC: Anna Maria Matuszewska
!!!EEV: 2024/30/07
*-	*-